X:1
T:[ID 2-66]
T:[ID 2-66]
T:Bezeichnung standardisiert: Menuet [mit Trio] Menuet Con Trio
T:Urheber unbekannt Datum in der hier transkribierten schriftlichen Quelle: 1767
C:Urheber unbekannt
C:Datum in der hier transkribierten schriftlichen Quelle: 1767
L:1/8
M:3/4
K:G
V:1 treble 
V:1
 G4 BG | dBgdBG | D4 FD | AFcAFD | G4 BG | dBgdBd | c2 c2{c} B2 |{B} A6 :: d4 gd | bddccB | c4 fd | %11
 accBBA | B3 ded | g3 ded | c2 B2 A2 | G6 :: d4 Tc2 | B4 TA2 | G4 TA2 | G4 z2 | AB c2 B2 | BA A4 | %22
 Bc d2 c2 | cB A4 :: e4 (3=fed | e4 z2 | d4 (3edc | d4 z2 | c4 TB2 | A4 G2 | FAAccB |{B} A4 z2 | %32
 d4 (3cfg | d4 Tc2 | B4 A2 | G6 :| %36

